icons/mobile/24/svg/folder-arrow-right-24.svg

<svg width="24" height="24" viewBox="0 0 24 24" fill="none" xmlns="http://www.w3.org/2000/svg">
<path d="M9.6123 4.50098C10.5722 4.50106 11.4909 4.91113 12.1328 5.625L13.3896 7.02051C15.5706 7.03251 17.7734 7.15388 19.9434 7.37988L19.9424 7.38184C21.6851 7.56198 22.9989 9.01592 22.999 10.7637V18.2607C22.999 20.0067 21.6987 21.4586 19.9727 21.6396C17.6608 21.8796 15.3129 22.002 12.999 22.002C10.685 22.002 8.34869 21.8806 6.05469 21.6426C4.31187 21.4614 2.99902 20.0066 2.99902 18.2598V17.502H4.74902V18.2598C4.74902 19.1078 5.38833 19.8153 6.23633 19.9033C10.7052 20.3663 15.2911 20.3674 19.791 19.9004C20.622 19.8134 21.249 19.1087 21.249 18.2607V10.7637C21.2489 9.91481 20.6106 9.21006 19.7627 9.12207C17.5228 8.88909 15.2479 8.77051 13 8.77051C12.752 8.7705 12.5156 8.66641 12.3496 8.48145L10.833 6.79492C10.5211 6.44902 10.0772 6.25106 9.6123 6.25098H6.3916C5.48595 6.25121 4.74928 6.98886 4.74902 7.89551V11.501H2.99902V7.89551C2.99928 6.02286 4.52095 4.50121 6.3916 4.50098H9.6123Z" fill="black"/>
<path d="M10 12.0332C10 11.3652 10.8083 11.0309 11.2803 11.5029L13.7461 13.9688C14.0391 14.2618 14.0391 14.7373 13.7461 15.0303L11.2803 17.4961C10.8083 17.9691 10 17.6338 10 16.9658V15.25H1.75C1.33601 15.25 1.00002 14.914 1 14.5C1 14.086 1.336 13.75 1.75 13.75H10V12.0332Z" fill="black"/>
</svg>

<!-- This Source Code Form is subject to the terms of the Mozilla Public
   - License, v. 2.0. If a copy of the MPL was not distributed with this
   - file, You can obtain one at http://mozilla.org/MPL/2.0/. -->
<svg xmlns="http://www.w3.org/2000/svg" width="24" height="24" fill="none" viewBox="0 0 24 24">
    <path fill="#000" d="M9.612 4.501c.96 0 1.879.41 2.52 1.124l1.258 1.396c2.18.012 4.383.133 6.553.359v.002a3.395 3.395 0 0 1 3.056 3.382v7.497a3.38 3.38 0 0 1-3.026 3.379 67.3 67.3 0 0 1-13.918.002 3.396 3.396 0 0 1-3.056-3.382v-.758h1.75v.758c0 .848.64 1.555 1.487 1.643a66 66 0 0 0 13.555-.003 1.636 1.636 0 0 0 1.458-1.64v-7.496c0-.85-.638-1.554-1.486-1.642A66 66 0 0 0 13 8.771a.87.87 0 0 1-.65-.29l-1.517-1.686a1.65 1.65 0 0 0-1.22-.544H6.391c-.906 0-1.643.738-1.643 1.645V11.5h-1.75V7.896A3.397 3.397 0 0 1 6.392 4.5z" />
    <path fill="#000" d="M10 12.033a.75.75 0 0 1 1.28-.53l2.466 2.466a.75.75 0 0 1 0 1.061l-2.466 2.466a.75.75 0 0 1-1.28-.53V15.25H1.75a.75.75 0 0 1 0-1.5H10z" />
</svg>
